X:1
T:Princess Nancy
C:Liz Carroll, arr. LN
M:6/8
K:G
R: jig
z c |: {c} B2  A BGE | {G} EDE G2 A | BAB deg | abg eag       |
       ede g2  a     | {a} ged e2 d | dBA BGE | {G} EDE G2 A :|
       B2  g   edB   | {d} BAB d2 B | AGA Bdd | AGA BGE       |
       B2  g   edB   | {d} BAB d2 B | AGA BGE | {G} EDE G2 A ||
       B2  g   edB   | BAB d2  B    | ABA ABd | egd ega       |
       bag agd       | egd e2  g    | dBA BGE | EDE G3        |]
